X: 5
T: The Burnt Old Man
R: jig
M: 6/8
L: 1/8
K: Gmaj
GBe dBG | BcB B2A | GBe dBG | ABA A2B | GBe dBG | dBd g2a | bag (3efg e | dBG B2A|
g3 gab | eee e2d | g3 gab | bag a2d | g3 gab | dBd g2a | bag (3efg e | dBG A2G


Tune 1029	Setting 1029

